!! 00008] TT[TB
!! Eigene Aufnahme
!!!OTL: Jing jiu ge
!!!ARE: Neimeng Yikezhaomeng
!! Ethnic Group: Menggu
!! IV, 331 (2)
!!!SCT: C0179
!!!YEM: Copyright 1995, estate of Helmut Schaffrath.
**kern
*ICvox
*Ivox
*M2/4
*k[b-]
*F:
{16cc
8cc
16dd
16g
8g
16a
=1
16cc
8cc
16ff
16dd
16cc
16g
16a
=2
8.cc
16dd
4cc}
=3
{16dd
8dd
16gg
16g
8g
16a
=4
16cc
16dd
8gg
16dd
16cc
8a
=5
16a
8g
16a
4g}
=6
{8cc
16a
16g
8f
16f
16d
=7
8.f
16ff
16dd
8cc
16a
=8
16a
8g
16a
8g
8c}
=9
{8cc
16a
16g
16f
16g
8cc
=10
16a
16g
16g
16f
16d
16f
8a
=11
2c}
==
!!!AGN: Duan diao, Hun li ge. Yingke shi chang
!! Saenger: Chao Lun Batou; VARIANTE (2 Strophen)
!!    Vereinzelt Verzierungen.
!!!ONB: ESAC (Essen Associative Code) Database: CHINA
!!!AMT: simple duple
!!!AIN: vox
!!!EED: Helmut Schaffrath
!!!EEV: 1.0
*-
